packages/core/src/svgs/tokens/mono/NBLU.svg

<svg width="24" height="24" viewBox="0 0 24 24" fill="none" xmlns="http://www.w3.org/2000/svg">
<path d="M14.4497 18.836C17.4601 19.6611 20.7106 17.2658 21.7107 13.4852C22.7009 9.71452 21.0657 5.98399 18.0502 5.16386C15.5621 4.48191 12.9101 5.99978 11.5 8.68138C11.6648 8.88169 11.829 9.14052 11.9893 9.47487C12.7495 11.0352 13.1195 11.7102 13.4796 12.0003C13.4995 11.9003 13.5095 11.7403 13.4995 11.5351C13.4745 10.9901 13.1794 10.18 12.7495 9.22983C12.4938 8.74131 12.4965 8.52373 12.4989 8.33353C12.4992 8.31541 12.4994 8.29753 12.4994 8.27969C12.4994 8.07465 12.8694 7.49958 14.2197 7.49958C14.8947 7.49958 15.4898 7.66459 15.7698 8.27969C16.0499 8.89979 16.205 14.3257 15.4499 15.6758C15.2498 16.0508 14.2996 16.501 13.3395 16.501C13.3325 16.501 13.3254 16.501 13.3182 16.501C13.081 16.5024 12.694 16.5045 12.1894 15.1457C11.6742 13.7455 10.9342 12.0003 10.659 12.0003C10.5498 12.0003 10.5069 12.3404 10.5 12.7147C10.4992 13.335 10.5675 13.9378 10.6984 14.5089C10.7246 14.5867 10.758 14.681 10.7946 14.7847C10.9021 15.0889 11.0383 15.4741 11.1082 15.7609C11.7686 17.2778 12.935 18.424 14.4497 18.836Z" fill="white"/>
<path d="M9.55015 18.836C6.53969 19.6611 3.28919 17.2658 2.28904 13.4852C1.29888 9.71452 2.93413 5.98399 5.9496 5.16386C8.4784 4.47075 11.1766 6.05005 12.568 8.81394C12.6054 8.92738 12.6625 9.06276 12.7501 9.22983C12.8131 9.36913 12.8733 9.50542 12.9301 9.6383C13.0371 9.92105 13.131 10.2135 13.2107 10.5147C13.3406 11.0094 13.4253 11.5033 13.4677 11.9901C13.1115 11.6945 12.7413 11.0171 11.9899 9.47487C11.2775 7.98841 10.484 7.99478 9.9348 7.99918C9.90563 7.99942 9.87728 7.99965 9.84963 7.99965C9.2945 7.99965 8.41936 8.03965 7.9793 8.3697H7.97429C7.62424 8.63474 7.51423 10.87 7.49922 12.0652C7.49922 14.7807 7.69925 15.9709 7.89929 16.426C8.09931 16.876 8.49438 17.001 9.24949 17.001C10.5997 17.001 11.1547 16.386 11.1547 16.0508C11.1547 15.8021 10.9467 15.2132 10.7952 14.7847C10.7489 14.6535 10.7078 14.5373 10.6797 14.4506C10.5597 14.0806 10.4997 13.2355 10.4997 12.8254C10.4997 12.4103 10.5397 12.0003 10.6596 12.0003C10.9348 12.0003 11.6748 13.7455 12.19 15.1457C12.3765 15.6482 12.5471 15.9645 12.6999 16.1637C12.0172 17.4793 10.9277 18.4613 9.55015 18.836Z" fill="white"/>
</svg>

<svg xmlns="http://www.w3.org/2000/svg" width="24" height="24" fill="none" viewBox="0 0 24 24">
    <path fill="#fff" d="M14.45 18.836c3.01.825 6.26-1.57 7.26-5.35.99-3.771-.644-7.502-3.66-8.322-2.488-.682-5.14.836-6.55 3.517.165.2.329.46.49.794.76 1.56 1.13 2.235 1.49 2.525.02-.1.03-.26.02-.465-.025-.545-.32-1.355-.75-2.305-.256-.489-.254-.706-.251-.896V8.28c0-.205.37-.78 1.72-.78.676 0 1.27.165 1.55.78.28.62.436 6.046-.32 7.396-.2.375-1.15.825-2.11.825h-.02c-.238.001-.625.003-1.13-1.355-.515-1.4-1.255-3.146-1.53-3.146-.11 0-.152.34-.159.715 0 .62.068 1.223.198 1.794l.097.276c.107.304.243.69.313.976.66 1.517 1.827 2.663 3.342 3.075"/>
    <path fill="#fff" d="M9.55 18.836c-3.01.825-6.26-1.57-7.261-5.35-.99-3.771.645-7.502 3.66-8.322 2.53-.693 5.228.886 6.619 3.65q.054.167.182.416.095.21.18.408.161.424.28.877.194.743.258 1.475c-.357-.296-.727-.973-1.478-2.515-.713-1.487-1.506-1.48-2.055-1.476H9.85c-.556 0-1.43.04-1.87.37h-.006c-.35.266-.46 2.501-.475 3.696 0 2.716.2 3.906.4 4.361.2.45.595.575 1.35.575 1.35 0 1.906-.615 1.906-.95 0-.249-.208-.838-.36-1.266-.046-.132-.087-.248-.115-.334-.12-.37-.18-1.216-.18-1.626 0-.415.04-.825.16-.825.275 0 1.015 1.745 1.53 3.146.187.502.357.818.51 1.018-.683 1.315-1.772 2.297-3.15 2.672"/>
</svg>
